X:21070 
T:GREEN GATES (reel), The
B:DMI.0764
Z:Nordberg/Black
N:Repeats not in DMI.
R:reel
%Q:1/4=180
M:C|
L:1/8
K:G
D|GBdg egdB|GBdg egdg|eAcA eAcA|cdef gedB|
GBdg egdB|GBdg egdB|cdef gedc|BGAF G3:|
B|dgg2 bgg2|dgfg egdf|eAcA eAcA|cdef gedB|
dgg2 bgg2|dgfg e2dB|cdef gedc|BGAF G3 :|

%%%

